svg/钉钉.svg

<svg width="24" height="24" viewBox="0 0 24 24" fill="none" xmlns="http://www.w3.org/2000/svg">
<rect width="24" height="24" fill="#F5F5F5"/>
<rect width="793" height="822" transform="translate(-466.404 -49.5)" fill="white"/>
<path d="M14.1918 8.72285C14.3597 8.88026 14.525 9.04039 14.7005 9.19237C14.993 9.46377 15.2907 9.71074 15.5857 9.97128C16.1199 10.4462 16.6668 10.9049 17.2162 11.3608C17.5067 11.5717 17.7183 11.8849 17.814 12.2456C17.876 12.5252 17.8715 12.817 17.8008 13.0943C17.7302 13.3716 17.5957 13.6256 17.4096 13.8333C17.1984 14.1047 16.9593 14.3354 16.7329 14.5851L16.6744 14.661L15.2703 16.1429C15.2423 16.1727 15.2042 16.2026 15.2271 16.2487C15.25 16.2949 15.2957 16.2921 15.339 16.2949C15.7511 16.2949 16.1631 16.2949 16.5727 16.2949C16.6414 16.2949 16.7406 16.2542 16.7685 16.3519C16.7965 16.4496 16.6948 16.4686 16.6414 16.5093L10.0557 21.6658C10.01 21.704 9.96056 21.7368 9.90819 21.7635C9.8268 21.8015 9.76829 21.7473 9.79118 21.6523C9.80869 21.5977 9.83262 21.5457 9.86241 21.4976L11.8974 17.8825C11.9203 17.8391 11.9711 17.7957 11.9406 17.7387C11.9101 17.6817 11.8439 17.6953 11.7931 17.6953H10.4144C10.2414 17.6953 10.2236 17.6627 10.3076 17.508L11.2869 15.7168C11.2943 15.7021 11.3003 15.6867 11.3047 15.6706C11.3192 15.5859 11.3467 15.5043 11.3861 15.4291C11.4319 15.3558 11.409 15.3233 11.3301 15.3233C11.175 15.3233 11.0223 15.3233 10.8672 15.2988C10.0046 15.2502 9.18193 14.8959 8.52951 14.2919C8.07228 13.8968 7.71542 13.3854 7.49168 12.8047C7.45823 12.7174 7.43433 12.6264 7.42046 12.5333C7.40511 12.4844 7.40312 12.4319 7.41473 12.3818C7.42635 12.3318 7.45108 12.2863 7.48604 12.2507C7.521 12.2151 7.56474 12.1909 7.61214 12.1808C7.65954 12.1708 7.70864 12.1754 7.75368 12.194C7.8653 12.2265 7.97489 12.2664 8.08182 12.3134C8.74225 12.5667 9.42358 12.753 10.1168 12.8698C10.5652 12.9554 11.0196 13.0008 11.4751 13.0055C11.1571 12.9567 10.8087 12.9051 10.4576 12.8318C9.86575 12.7146 9.28508 12.5402 8.72283 12.3107C8.11971 12.0479 7.58672 11.6302 7.17118 11.0949C6.83439 10.6766 6.56997 10.1979 6.39026 9.68089C6.31835 9.43316 6.25975 9.18125 6.21475 8.9264C6.15528 8.5471 6.14331 8.16105 6.17914 7.77838C6.17813 7.71723 6.19369 7.65706 6.22397 7.60512C6.25424 7.55318 6.29793 7.51167 6.34978 7.48558C6.40163 7.4595 6.45944 7.44994 6.51626 7.45807C6.57308 7.46621 6.62649 7.49167 6.67007 7.53141C6.82545 7.63961 6.97414 7.75837 7.11522 7.88694C8.64622 9.07035 10.3068 10.0501 12.0602 10.8045C11.6811 10.6091 11.1114 10.297 10.5492 9.96857C9.77327 9.51419 9.03167 8.99606 8.3311 8.41888C8.17167 8.29769 8.02498 8.15847 7.89359 8.00365C7.86233 7.9536 7.8216 7.91107 7.77403 7.8788L7.75114 7.84895C7.44376 7.53935 7.18598 7.17813 6.98803 6.77964C6.64065 6.13844 6.44187 5.41798 6.40824 4.67823C6.37461 3.93849 6.50711 3.20088 6.79471 2.52683C6.81051 2.45735 6.84423 2.39399 6.89206 2.34391C6.93989 2.29384 6.9999 2.25906 7.06531 2.24352C7.13071 2.22798 7.19889 2.2323 7.26211 2.256C7.32533 2.27969 7.38107 2.3218 7.423 2.37756C7.63667 2.57568 7.84526 2.77923 8.05893 2.97735L8.25225 3.15376C8.55495 3.43601 8.8551 3.73727 9.16543 4.02495C10.3525 5.1413 11.5396 6.25494 12.7266 7.36586C13.1972 7.82452 13.6856 8.28319 14.1918 8.72285Z" stroke="#A3A3A3" stroke-width="1.0224" stroke-linecap="round" stroke-linejoin="round"/>
</svg>

<svg fill="none" viewBox="0 0 24 24"><path fill="#F5F5F5" d="M0 0h24v24H0z"/><path fill="white" d="M-466.404-49.5h793v822h-793z"/><path stroke="#A3A3A3" strokeLinecap="round" strokeLinejoin="round" strokeWidth="1.022" d="M14.192 8.723c.168.157.333.317.508.47.293.27.59.518.886.778.534.475 1.08.934 1.63 1.39.29.21.502.524.598.885.062.28.058.571-.013.848-.07.278-.205.532-.391.74-.212.27-.45.501-.677.751l-.059.076-1.404 1.482c-.028.03-.066.06-.043.106s.069.043.112.046h1.234c.068 0 .168-.04.195.057.029.098-.073.117-.127.157l-6.585 5.157a.8.8 0 0 1-.148.098c-.081.038-.14-.017-.117-.112a.7.7 0 0 1 .071-.154l2.035-3.616c.023-.043.074-.086.044-.143s-.097-.044-.148-.044h-1.379c-.173 0-.19-.032-.106-.187l.979-1.791a.3.3 0 0 0 .018-.046.8.8 0 0 1 .081-.242c.046-.073.023-.106-.056-.106-.155 0-.308 0-.463-.024a3.75 3.75 0 0 1-2.337-1.007 3.74 3.74 0 0 1-1.038-1.487 1.3 1.3 0 0 1-.072-.272.29.29 0 0 1 .066-.282.24.24 0 0 1 .268-.057q.166.049.328.12a10.6 10.6 0 0 0 2.035.556q.674.127 1.358.136c-.318-.05-.666-.1-1.017-.174a9.4 9.4 0 0 1-1.735-.521 4 4 0 0 1-1.552-1.216 4.7 4.7 0 0 1-.78-1.414q-.109-.372-.176-.755a4.6 4.6 0 0 1-.036-1.148.33.33 0 0 1 .045-.173.3.3 0 0 1 .126-.12.28.28 0 0 1 .32.046q.233.163.445.356a22.9 22.9 0 0 0 4.945 2.918 36 36 0 0 1-1.51-.836 17 17 0 0 1-2.219-1.55 2.8 2.8 0 0 1-.437-.415.4.4 0 0 0-.12-.125l-.023-.03a4.1 4.1 0 0 1-.763-1.07 4.92 4.92 0 0 1-.193-4.253.4.4 0 0 1 .097-.182.35.35 0 0 1 .173-.1.34.34 0 0 1 .197.012.36.36 0 0 1 .161.122c.214.198.422.401.636.6l.193.176c.303.282.603.583.913.87q1.782 1.675 3.562 3.342c.47.459.959.917 1.465 1.357"/></svg>
